icon/lg/aws-fargate.svg

<?xml version="1.0" encoding="UTF-8"?>
<svg viewBox="0 0 256 256" version="1.1" xmlns="http://www.w3.org/2000/svg" xmlns:xlink="http://www.w3.org/1999/xlink" preserveAspectRatio="xMidYMid" height="1em" width="1em">
  <defs>
    <linearGradient x1="0%" y1="100%" x2="100%" y2="0%" id="linearGradient-1">
      <stop stop-color="#C8511B" offset="0%"/>
      <stop stop-color="#FF9900" offset="100%"/>
    </linearGradient>
  </defs>
  <g>
    <rect fill="url(#linearGradient-1)" x="0" y="0" width="256" height="256"/>
    <path d="M166.4,180.8736 L166.4,165.3664 L176,161.5264 L176,177.0336 L166.4,180.8736 Z M150.4,161.5264 L160,165.3664 L160,180.8736 L150.4,177.0336 L150.4,161.5264 Z M131.2,203.2736 L131.2,187.7664 L140.8,183.9264 L140.8,199.4336 L131.2,203.2736 Z M115.2,183.9264 L124.8,187.7664 L124.8,203.2736 L115.2,199.4336 L115.2,183.9264 Z M96,180.8736 L96,165.3664 L105.6,161.5264 L105.6,177.0336 L96,180.8736 Z M80,161.5264 L89.6,165.3664 L89.6,180.8736 L80,177.0336 L80,161.5264 Z M92.8,153.8464 L100.1856,156.8 L92.8,159.7536 L85.4144,156.8 L92.8,153.8464 Z M128,176.2464 L135.3856,179.2 L128,182.1536 L120.6144,179.2 L128,176.2464 Z M163.2,153.8464 L170.5856,156.8 L163.2,159.7536 L155.8144,156.8 L163.2,153.8464 Z M180.3872,153.8272 L164.3872,147.4272 C163.6256,147.1264 162.7744,147.1264 162.0128,147.4272 L146.0128,153.8272 C144.7968,154.3168 144,155.4912 144,156.8 L144,175.7536 L129.1872,169.8272 C128.4256,169.5264 127.5744,169.5264 126.8128,169.8272 L112,175.7536 L112,156.8 C112,155.4912 111.2032,154.3168 109.9872,153.8272 L93.9872,147.4272 C93.2256,147.1264 92.3744,147.1264 91.6128,147.4272 L75.6128,153.8272 C74.3968,154.3168 73.6,155.4912 73.6,156.8 L73.6,179.2 C73.6,180.5088 74.3968,181.6832 75.6128,182.1728 L91.6128,188.5728 C91.9936,188.7232 92.3968,188.8 92.8,188.8 C93.2032,188.8 93.6064,188.7232 93.9872,188.5728 L108.8,182.6464 L108.8,201.6 C108.8,202.9088 109.5968,204.0832 110.8128,204.5728 L126.8128,210.9728 C127.1936,211.1232 127.5968,211.2 128,211.2 C128.4032,211.2 128.8064,211.1232 129.1872,210.9728 L145.1872,204.5728 C146.4032,204.0832 147.2,202.9088 147.2,201.6 L147.2,182.6464 L162.0128,188.5728 C162.3936,188.7232 162.7968,188.8 163.2,188.8 C163.6032,188.8 164.0064,188.7232 164.3872,188.5728 L180.3872,182.1728 C181.6032,181.6832 182.4,180.5088 182.4,179.2 L182.4,156.8 C182.4,155.4912 181.6032,154.3168 180.3872,153.8272 L180.3872,153.8272 Z M208,115.0016 C208,133.7056 166.7808,143.8016 128,143.8016 C89.2192,143.8016 48,133.7056 48,115.0016 C48,106.0704 57.904,98.208 75.888,92.8608 L77.712,98.9952 C63.3312,103.2704 54.4,109.4048 54.4,115.0016 C54.4,125.5968 84.624,137.4016 128,137.4016 C171.376,137.4016 201.6,125.5968 201.6,115.0016 C201.6,109.4048 192.6688,103.2704 178.288,98.9952 L180.112,92.8608 C198.096,98.208 208,106.0704 208,115.0016 L208,115.0016 Z M128,54.6272 L160.6848,67.2 L128,79.7728 L95.3152,67.2 L128,54.6272 Z M161.856,117.8944 C155.8208,120.5952 145.6896,123.7408 131.2,124.1632 L131.2,85.3984 L166.4,71.8624 L166.4,110.8736 C166.4,113.9168 164.6208,116.672 161.856,117.8944 L161.856,117.8944 Z M89.6,110.8736 L89.6,71.8624 L124.8,85.3984 L124.8,124.1632 C110.3104,123.7408 100.1792,120.5952 94.1312,117.888 C91.3792,116.672 89.6,113.9168 89.6,110.8736 L89.6,110.8736 Z M91.5328,123.7344 C98.576,126.8864 110.6208,130.6464 128,130.6464 C145.3792,130.6464 157.424,126.8864 164.4576,123.7408 C169.5264,121.4976 172.8,116.448 172.8,110.8736 L172.8,67.2 C172.8,65.8752 171.984,64.688 170.7488,64.2112 L129.1488,48.2112 C128.4064,47.9296 127.5936,47.9296 126.8512,48.2112 L85.2512,64.2112 C84.016,64.688 83.2,65.8752 83.2,67.2 L83.2,110.8736 C83.2,116.448 86.4736,121.4976 91.5328,123.7344 L91.5328,123.7344 Z" fill="#FFFFFF"/>
  </g>
</svg>

<svg width="256" height="256" xmlns="http://www.w3.org/2000/svg" preserveAspectRatio="xMidYMid"><defs><linearGradient x1="0%" y1="100%" x2="100%" y2="0%" id="a"><stop stop-color="#C8511B" offset="0%"/><stop stop-color="#F90" offset="100%"/></linearGradient></defs><path fill="url(#a)" d="M0 0h256v256H0z"/><path d="M166.4 180.874v-15.508l9.6-3.84v15.508l-9.6 3.84Zm-16-19.348 9.6 3.84v15.508l-9.6-3.84v-15.508Zm-19.2 41.748v-15.508l9.6-3.84v15.508l-9.6 3.84Zm-16-19.348 9.6 3.84v15.508l-9.6-3.84v-15.508ZM96 180.874v-15.508l9.6-3.84v15.508l-9.6 3.84Zm-16-19.348 9.6 3.84v15.508l-9.6-3.84v-15.508Zm12.8-7.68 7.386 2.954-7.386 2.954-7.386-2.954 7.386-2.954Zm35.2 22.4 7.386 2.954-7.386 2.954-7.386-2.954 7.386-2.954Zm35.2-22.4 7.386 2.954-7.386 2.954-7.386-2.954 7.386-2.954Zm17.187-.019-16-6.4c-.761-.3-1.613-.3-2.374 0l-16 6.4A3.205 3.205 0 0 0 144 156.8v18.954l-14.813-5.927c-.761-.3-1.613-.3-2.374 0L112 175.754V156.8a3.205 3.205 0 0 0-2.013-2.973l-16-6.4c-.761-.3-1.613-.3-2.374 0l-16 6.4A3.205 3.205 0 0 0 73.6 156.8v22.4c0 1.309.797 2.483 2.013 2.973l16 6.4c.38.15.784.227 1.187.227s.806-.077 1.187-.227l14.813-5.927V201.6c0 1.309.797 2.483 2.013 2.973l16 6.4c.38.15.784.227 1.187.227s.806-.077 1.187-.227l16-6.4a3.205 3.205 0 0 0 2.013-2.973v-18.954l14.813 5.927c.38.15.784.227 1.187.227s.806-.077 1.187-.227l16-6.4a3.205 3.205 0 0 0 2.013-2.973v-22.4a3.205 3.205 0 0 0-2.013-2.973ZM208 115.002c0 18.704-41.22 28.8-80 28.8s-80-10.096-80-28.8c0-8.932 9.904-16.794 27.888-22.141l1.824 6.134c-14.38 4.275-23.312 10.41-23.312 16.007 0 10.595 30.224 22.4 73.6 22.4 43.376 0 73.6-11.805 73.6-22.4 0-5.597-8.931-11.732-23.312-16.007l1.824-6.134C198.096 98.208 208 106.07 208 115Zm-80-60.375L160.685 67.2 128 79.773 95.315 67.2 128 54.627Zm33.856 63.267c-6.035 2.701-16.166 5.847-30.656 6.27V85.397l35.2-13.536v39.012c0 3.043-1.78 5.798-4.544 7.02Zm-72.256-7.02V71.862l35.2 13.536v38.765c-14.49-.422-24.62-3.568-30.669-6.275-2.752-1.216-4.531-3.971-4.531-7.014Zm1.933 12.86c7.043 3.152 19.088 6.912 36.467 6.912 17.38 0 29.424-3.76 36.458-6.905 5.068-2.243 8.342-7.293 8.342-12.867V67.2a3.204 3.204 0 0 0-2.051-2.989l-41.6-16a3.23 3.23 0 0 0-2.298 0l-41.6 16A3.204 3.204 0 0 0 83.2 67.2v43.674c0 5.574 3.274 10.624 8.333 12.86Z" fill="#FFF"/></svg>
